src/icons/outline/communication/call-listening.svg

<svg width="24" height="24" viewBox="0 0 24 24" fill="none" xmlns="http://www.w3.org/2000/svg">
<g clip-path="url(#clip0_6367_1263)">
<path fill-rule="evenodd" clip-rule="evenodd" d="M12.0992 1C16.4495 1.0001 20.0366 4.30998 20.4132 8.52324H20.6909C22.3854 8.52331 23 10.0849 23 12V14.7402C23 16.6552 22.3854 18.2063 20.6909 18.2064H20.4432C20.4135 20.1019 18.8476 21.6342 16.9351 21.6342H15.468C15.1707 22.4298 14.388 23 13.4763 23H10.7211C9.54204 22.9998 8.59108 22.0564 8.59108 20.8976C8.59121 19.739 9.54212 18.7965 10.7211 18.7962H13.4763C14.3879 18.7962 15.1706 19.3657 15.468 20.161H16.9351C18.0449 20.161 18.9567 19.2672 18.9567 18.1575V17.6079C18.7387 17.4017 18.59 17.1364 18.5899 16.7927V9.94751C18.5899 9.61359 18.729 9.34811 18.947 9.14186C18.8876 5.44913 15.8747 2.47329 12.0992 2.47319C8.32355 2.47319 5.24168 5.51793 5.24168 9.25983C5.24168 9.29901 5.2409 9.32826 5.23103 9.35766C5.34004 9.52462 5.41006 9.72162 5.41006 9.94751V16.7927C5.41 17.8729 3.95269 18.2064 3.53649 18.2064H3.30907C1.61455 18.2064 1.00005 16.6552 1 14.7402V12C1 10.0849 1.61449 8.52324 3.30907 8.52324H3.53649C3.59588 8.52324 3.68527 8.53337 3.78423 8.55297C4.1509 4.32983 7.74878 1 12.0992 1ZM10.7211 20.2694C10.3646 20.2696 10.0777 20.5541 10.0776 20.8976C10.0776 21.2412 10.3646 21.5266 10.7211 21.5268H13.4763C13.8331 21.5268 14.1208 21.2512 14.1208 20.8976C14.1207 20.5442 13.833 20.2694 13.4763 20.2694H10.7211ZM3.30907 9.99643C2.32799 9.99643 2.29776 10.9 2.29776 12V14.7402C2.29777 15.84 2.32806 16.7332 3.30907 16.7332H3.53649C3.6554 16.7332 3.9431 16.6451 4.10166 16.5567V10.1825C3.94305 10.0941 3.65534 9.99643 3.53649 9.99643H3.30907ZM20.4529 9.99643C20.334 9.99649 20.0569 10.0942 19.8983 10.1825V16.5567C20.0569 16.6451 20.3339 16.7331 20.4529 16.7332H20.6909C21.6718 16.7331 21.7013 15.84 21.7013 14.7402V12C21.7013 10.9001 21.6719 9.9965 20.6909 9.99643H20.4529Z" fill="#3C3B44"/>
<path d="M12.0992 9.23969C12.3764 9.23982 12.5945 9.45601 12.5947 9.73075V17.441C12.5946 17.7158 12.3765 17.932 12.0992 17.9321C11.8218 17.9321 11.6038 17.7159 11.6037 17.441V9.73075C11.6039 9.45593 11.8218 9.23969 12.0992 9.23969Z" fill="#3C3B44"/>
<path d="M9.49303 10.7819C9.77037 10.7821 9.98849 10.9981 9.98852 11.273V15.8988C9.98852 16.1737 9.77039 16.3897 9.49303 16.3898C9.21555 16.3898 8.99754 16.1738 8.99754 15.8988V11.273C8.99757 10.998 9.21557 10.7819 9.49303 10.7819Z" fill="#3C3B44"/>
<path d="M14.6957 10.7819C14.973 10.7821 15.1911 10.9981 15.1912 11.273V15.8988C15.1912 16.1737 14.973 16.3897 14.6957 16.3898C14.4182 16.3898 14.2002 16.1738 14.2002 15.8988V11.273C14.2002 10.998 14.4182 10.7819 14.6957 10.7819Z" fill="#3C3B44"/>
<path d="M6.89654 12.3242C7.1739 12.3243 7.39203 12.5403 7.39203 12.8152V14.416C7.39196 14.6908 7.17386 14.9069 6.89654 14.9071C6.6191 14.9071 6.40111 14.6909 6.40105 14.416V12.8152C6.40105 12.5402 6.61906 12.3242 6.89654 12.3242Z" fill="#3C3B44"/>
<path d="M17.3019 12.3242C17.5792 12.3243 17.7973 12.5403 17.7973 12.8152V14.416C17.7973 14.6908 17.5792 14.9069 17.3019 14.9071C17.0244 14.9071 16.8064 14.6909 16.8064 14.416V12.8152C16.8064 12.5402 17.0244 12.3242 17.3019 12.3242Z" fill="#3C3B44"/>
</g>
<defs>
<clipPath id="clip0_6367_1263">
<rect width="24" height="24" fill="white"/>
</clipPath>
</defs>
</svg>

<svg xmlns="http://www.w3.org/2000/svg" width="24" height="24" fill="none" viewBox="0 0 24 24"><g fill="currentColor" clip-path="url(#a)"><path fill-rule="evenodd" d="M12.1 1c4.35 0 7.937 3.31 8.313 7.523h.278C22.385 8.523 23 10.085 23 12v2.74c0 1.915-.615 3.466-2.31 3.466h-.247c-.03 1.896-1.595 3.428-3.508 3.428h-1.467A2.125 2.125 0 0 1 13.476 23h-2.755c-1.179 0-2.13-.944-2.13-2.102 0-1.159.951-2.101 2.13-2.102h2.755c.912 0 1.695.57 1.992 1.365h1.467c1.11 0 2.022-.894 2.022-2.004v-.55a1.1 1.1 0 0 1-.367-.814V9.948c0-.334.139-.6.357-.806-.06-3.693-3.072-6.669-6.848-6.669S5.242 5.518 5.242 9.26a.3.3 0 0 1-.011.098c.109.167.18.364.18.59v6.845c-.001 1.08-1.458 1.413-1.875 1.413H3.31c-1.695 0-2.31-1.55-2.31-3.466V12c0-1.915.614-3.477 2.31-3.477h.226c.06 0 .15.01.248.03C4.151 4.33 7.75 1 12.1 1m-1.38 19.27a.64.64 0 0 0-.643.628c0 .343.287.629.643.629h2.755a.633.633 0 0 0 .645-.63.63.63 0 0 0-.645-.628zM3.31 9.995c-.981 0-1.011.904-1.011 2.004v2.74c0 1.1.03 1.993 1.011 1.993h.227c.12 0 .407-.088.566-.176v-6.374c-.159-.089-.447-.187-.566-.187zm17.144 0c-.119 0-.396.098-.555.186v6.375c.159.088.436.176.555.176h.238c.98 0 1.01-.893 1.01-1.993V12c0-1.1-.03-2.004-1.01-2.004z" clip-rule="evenodd"/><path d="M12.1 9.24c.276 0 .495.216.495.49v7.711a.49.49 0 0 1-.496.491.49.49 0 0 1-.495-.491v-7.71c0-.275.218-.491.495-.491m-2.606 1.542a.49.49 0 0 1 .496.491v4.626c0 .275-.219.49-.496.49a.49.49 0 0 1-.495-.49v-4.626c0-.275.218-.491.495-.491m5.203 0c.277 0 .495.216.495.491v4.626c0 .275-.218.49-.495.49a.49.49 0 0 1-.496-.49v-4.626c0-.275.218-.491.496-.491m-7.799 1.542c.277 0 .495.216.495.491v1.601c0 .275-.218.49-.495.491a.49.49 0 0 1-.496-.491v-1.6c0-.276.218-.492.496-.492m10.405 0c.277 0 .495.216.495.491v1.601c0 .275-.218.49-.495.491a.49.49 0 0 1-.496-.491v-1.6c0-.276.218-.492.496-.492"/></g><defs><clipPath id="a"><path fill="currentColor" d="M0 0h24v24H0z"/></clipPath></defs></svg>
